!!!!SEGMENT: pl-sa--193-a-v-23--006_pausch-eugen--missa-in-c-agnus-dei.krn
!!!cenid: 17xx:641
!!!COM: Pausch, Eugen
!!!COM-rismID: pe30002453
!!!CDT: 1758-1838
!!!CNT: German
!!!OPR: Missa in C
!!!OTL: Agnus Dei
!!!OMV: 006
!!!PDT:
!!!AGN: Sacred; Mass
!!!SMS-siglum: PL-SA
!!!SMS-shelfmark: 193/A V 23
!!!SMS-shelfwork: 001-006 M
!!!SMS-variant:
!!!SMS-altvar:
!!!NIFC-rismSourceID: 1001036465
!!!NIFC-rismChildID: 1001036465
!!!NIFC-islandoraID:
!!!URL-pdf-islandora:
!!!URL-scan: https://bc.bdsandomierz.pl/dlibra/publication/1529/edition/1497/content @EN{Scan in the Sandomierz Diocese Digital Library} @PL{Skany w portalu Cyfrowa Biblioteka Diecezjalna w Sandomierzu}
!!!ONB-nifc: UWAGA: części Mszy: Kyrie, Gloria, Credo, Sanctus, Benedictus, Agnus Dei, Dona Uwaga: brak partii cornu 2.
!!!AIN: 2 clars 2 empty 1 organ 2 violn 1 vox
!!!key:
**kern	**fba	**dynam	**kern	**dynam	**kern	**dynam	**kern	**text	**kern	**text	**kern	**kern	**kern
*part8	*	*part8	*part7	*part7	*part6	*part6	*part5	*part5	*part4	*part4	*part3	*part2	*part1
*staff8	*	*	*staff7	*	*staff6	*	*staff5	*staff5	*staff4	*staff4	*staff3	*staff2	*staff1
*Iorgan	*	*	*Ivioln	*	*Ivioln	*	*Iempty	*	*Ivox	*	*Iempty	*Iclars	*Iclars
*I"Organo.	*	*	*I"Violino 2do	*	*I"Violino 1mo	*	*I"Baſso	*	*I"Canto	*	*I"Cornu Primo in C.	*I"Clarinetto vel Oboe 2do: in C.	*I"Clarinetto vel Oboe 1. in C
*I'org	*	*	*I'vl II	*	*I'vl I	*	*I'B	*	*I'C	*	*I'cor I	*I'cl II	*I'cl I
*clefF4	*	*	*clefG2	*	*clefG2	*	*clefF4	*	*clefC1	*	*clefG2	*clefG2	*clefG2
*	*	*	*	*	*	*	*	*	*	*	*Trd0c0	*	*
*k[]	*	*	*k[]	*	*k[]	*	*k[]	*	*k[]	*	*k[]	*k[]	*k[]
*C:	*	*	*C:	*	*C:	*	*C:	*	*C:	*	*C:	*C:	*C:
*M2/4	*	*	*M2/4	*	*M2/4	*	*M2/4	*	*M2/4	*	*M2/4	*M2/4	*M2/4
=1	=1	=1	=1	=1	=1	=1	=1	=1	=1	=1	=1	=1	=1
*tremolo	*	*	*	*	*	*	*	*	*	*	*2\right	*	*
!	!	!LO:HP:b:i:t=p.	!	!	!	!	!	!	!	!	!	!	!
!LO:TX:a:i:B:t=Ada(gio)&colon;	!	!	!LO:TX:i:a:B:t=Andante	!	!LO:TX:i:a:B:t=Andate	!	!	!	!LO:TX:a:i:B:t=And(ante)&colon;	!	!	!LO:TX:i:a:B:t=Agnus Tacet	!LO:TX:i:a:B:t=Agnus Tacet
!	!	!LO:DY:b:rj	!	!LO:DY:b:rj	!	!	!LO:N:vis=00	!	!LO:N:vis=00	!	!	!	!
8C/L	.	p	8e/	p	16g\LL	.	0r	.	0r	.	2cc\	2ryy	2ryy
.	.	.	.	.	16cc\JJ	.	.	.	.	.	.	.	.
8C/	.	.	4G/ 4e	.	4cc\	.	.	.	.	.	.	.	.
8C/	.	.	.	.	.	.	.	.	.	.	.	.	.
8C/J	.	.	8g/	.	8b\	.	.	.	.	.	.	.	.
=2	=2	=2	=2	=2	=2	=2	=2	=2	=2	=2	=2	=2	=2
.	6 4	.	.	.	.	.	.	.	.	.	.	.	.
8C/L	5 3	.	16f/LL	.	16a\LL	.	.	.	.	.	2cc\	2ryy	2ryy
.	.	.	16a/JJ	.	16ff\JJ	.	.	.	.	.	.	.	.
8C/	.	.	4a/	.	4ff\	.	.	.	.	.	.	.	.
8C/	.	.	.	.	.	.	.	.	.	.	.	.	.
8C/J	.	.	8g/	.	8ee\	.	.	.	.	.	.	.	.
=3	=3	=3	=3	=3	=3	=3	=3	=3	=3	=3	=3	=3	=3
8C/L	4 2	.	16a/LL	.	16ff\LL	.	.	.	.	.	8r	2ryy	2ryy
.	.	.	16f/JJ	.	16dd\JJ	.	.	.	.	.	.	.	.
8C/	.	.	4f/	.	4dd\	.	.	.	.	.	4dd\	.	.
8C/	.	.	.	.	.	.	.	.	.	.	.	.	.
8C/J	.	.	8d/	.	8b\	.	.	.	.	.	8dd\	.	.
*Xtremolo	*	*	*	*	*	*	*	*	*	*	*	*	*
=4	=4	=4	=4	=4	=4	=4	=4	=4	=4	=4	=4	=4	=4
8C/L	4 9	.	16f/LL	.	16dd\LL	.	.	.	.	.	8ee\L	2ryy	2ryy
.	.	.	16e/J	.	16cc\J	.	.	.	.	.	.	.	.
8C/J	3 6	.	8e/J	.	8cc\J	.	.	.	.	.	16ee\L	.	.
.	.	.	.	.	.	.	.	.	.	.	16ee\JJ	.	.
4r	.	.	4r	.	16r	.	.	.	.	.	8ee\	.	.
.	.	.	.	.	16g/LL	.	.	.	.	.	.	.	.
.	.	.	.	.	16g/	.	.	.	.	.	8r	.	.
.	.	.	.	.	16g/JJ	.	.	.	.	.	.	.	.
=5	=5	=5	=5	=5	=5	=5	=5	=5	=5	=5	=5	=5	=5
!	!	!	!	!	!	!	!0r	!	!LO:N:vis=00	!	!	!	!
2r	.	.	8r	.	16g/LL	.	0r	.	0r	.	2r	2ryy	2ryy
.	.	.	.	.	16b-X/	.	.	.	.	.	.	.	.
!	!	!	!	!	!	!	!	!	!	!	!LO:TX:a:t=1.	!	!
.	.	.	8g/L	.	16b-/	.	.	.	.	.	.	.	.
!LO:TX:a:t=1.	!	!	!	!	!	!	!	!	!	!	!	!	!
.	.	.	.	.	16a/JJ	.	.	.	.	.	.	.	.
.	.	.	8f/	.	16a\LL	.	.	.	.	.	.	.	.
.	.	.	.	.	16cc#X\	.	.	.	.	.	.	.	.
.	.	.	8e/J	.	16cc#\	.	.	.	.	.	.	.	.
.	.	.	.	.	16dd\JJ	.	.	.	.	.	.	.	.
=6	=6	=6	=6	=6	=6	=6	=6	=6	=6	=6	=6	=6	=6
4r	.	.	8d/L	.	16dd\LL	.	.	.	.	.	4r	2ryy	2ryy
.	.	.	.	.	16ee\	.	.	.	.	.	.	.	.
.	.	.	8c/J	.	16ee\	.	.	.	.	.	.	.	.
.	.	.	.	.	16ff\JJ	.	.	.	.	.	.	.	.
8r	.	.	4B/	.	4ff\	.	.	.	.	.	8r	.	.
8GG/	7	.	.	.	.	.	.	.	.	.	8dd\	.	.
!	!	!	!	!	!LO:LB:g=original	!	!	!	!	!	!	!	!
=7	=7	=7	=7	=7	=7	=7	=7	=7	=7	=7	=7	=7	=7
8C\L	.	.	8c/L	.	(>16ff\LL	.	.	.	.	.	4ee\	2ryy	2ryy
.	.	.	.	.	16ee\)	.	.	.	.	.	.	.	.
8E\	.	.	8g/	.	16ee'>\	.	.	.	.	.	.	.	.
.	.	.	.	.	16ee'>\JJ	.	.	.	.	.	.	.	.
8F\	6 -	.	8a/	.	16ff\LL	.	.	.	.	.	4r	.	.
.	.	.	.	.	16ee\	.	.	.	.	.	.	.	.
8F#X\J	7 5	.	8a/J	.	16dd\	.	.	.	.	.	.	.	.
.	.	.	.	.	16cc\JJ	.	.	.	.	.	.	.	.
=8	=8	=8	=8	=8	=8	=8	=8	=8	=8	=8	=8	=8	=8
8G\L	5 4	.	4e/	.	4cc\	.	.	.	.	.	4ee\	2ryy	2ryy
8D\	.	.	.	.	.	.	.	.	.	.	.	.	.
8GG\J	5 3	.	8d/	.	8b\	.	.	.	.	.	8dd\	.	.
!	!	!	!	!	!LO:TX:a:t=P:problem=znak końca repetycji	!	!	!	!	!	!	!	!
8r	.	.	8r	.	8r	.	.	.	.	.	8r	.	.
!	!	!	!	!	!	!	!	!	!	!	!LO:LB:g=original	!	!
=9	=9	=9	=9	=9	=9	=9	=9	=9	=9	=9	=9	=9	=9
*tremolo	*	*	*	*	*	*	*	*	*	*	*	*	*
!	!	!	!	!LO:HP:b:i:t=for	!LO:TX:a:t=P:problem=powtórzenie tt. 1-8 oznaczone znakiem końca repetycji oraz falowną linią	!	!	!	!LO:TX:i:a:t=Solo	!	!LO:TX:a:t=2	!	!
!	!	!	!	!LO:DY:b:rj	!	!	!LO:N:vis=00	!	!	!	!LO:N:vis=0	!	!
8C/L	.	.	8e/	f	16g\LL	.	0rF	.	8g\	A-	1r	2ryy	2ryy
.	.	.	.	.	16cc\JJ	.	.	.	.	.	.	.	.
8C/	.	.	4G/ 4e	.	4cc\	.	.	.	4cc\	.	.	.	.
8C/	.	.	.	.	.	.	.	.	.	.	.	.	.
8C/J	.	.	8g/	.	8b\	.	.	.	8b\	-gnus	.	.	.
!LO:LB:g=original	!	!	!	!	!	!	!	!	!	!	!	!	!
=10	=10	=10	=10	=10	=10	=10	=10	=10	=10	=10	=10	=10	=10
.	6 4	.	.	.	.	.	.	.	.	.	.	.	.
8C/L	5 3	.	16f/LL	.	16a\LL	.	.	.	16a\LL	De-	.	2ryy	2ryy
.	.	.	16a/JJ	.	16ff\JJ	.	.	.	16ff\JJ	.	.	.	.
8C/	.	.	4a/	.	4ff\	.	.	.	4ff\	-i	.	.	.
8C/	.	.	.	.	.	.	.	.	.	.	.	.	.
8C/J	.	.	8g/	.	8ee\	.	.	.	8ee\	qui	.	.	.
=11	=11	=11	=11	=11	=11	=11	=11	=11	=11	=11	=11	=11	=11
8C/L	4 2	.	16a/LL	.	16ff\LL	.	.	.	16ff\LL	tol-	4r	2ryy	2ryy
.	.	.	16f/JJ	.	16dd\JJ	.	.	.	16dd\JJ	.	.	.	.
8C/	.	.	4f/	.	4dd\	.	.	.	4dd\	-lis	.	.	.
8C/	.	.	.	.	.	.	.	.	.	.	8r	.	.
8C/J	.	.	8d/	.	8b\	.	.	.	8b\	pec-	8dd\	.	.
!	!	!	!LO:LB:g=original	!	!	!	!	!	!	!	!	!	!
*Xtremolo	*	*	*	*	*	*	*	*	*	*	*	*	*
=12	=12	=12	=12	=12	=12	=12	=12	=12	=12	=12	=12	=12	=12
8C/L	9 4	.	16f/LL	.	16dd\LL	.	.	.	16dd\LL	-ca-	8ee\L	2ryy	2ryy
.	.	.	16e/J	.	16cc\J	.	.	.	16cc\JJ	.	.	.	.
8C/J	6 3	.	8e/J	.	8cc\J	.	.	.	8cc\	-ta	16ee\L	.	.
.	.	.	.	.	.	.	.	.	.	.	16ee\JJ	.	.
4r	.	.	4r	.	16r	.	.	.	4r	.	8ee\	.	.
.	.	.	.	.	16g/LL	.	.	.	.	.	.	.	.
.	.	.	.	.	16g/	.	.	.	.	.	8r	.	.
.	.	.	.	.	16g/JJ	.	.	.	.	.	.	.	.
=13	=13	=13	=13	=13	=13	=13	=13	=13	=13	=13	=13	=13	=13
2r	.	.	8r	.	16g/LL	.	0rF	.	4r	.	2r	2ryy	2ryy
.	.	.	.	.	16b-X/	.	.	.	.	.	.	.	.
!	!	!	!	!LO:HP:b:i:t=p.	!	!	!	!	!	!	!	!	!
!	!	!	!	!LO:DY:b	!	!	!	!	!	!	!	!	!
.	.	.	8g/L	p	16b-/	.	.	.	.	.	.	.	.
!LO:TX:a:t=1.	!	!	!	!	!	!	!	!	!	!	!	!	!
.	.	.	.	.	16a/JJ	.	.	.	.	.	.	.	.
.	.	.	8f/	.	16a\LL	.	.	.	8r	.	.	.	.
.	.	.	.	.	16cc#X\	.	.	.	.	.	.	.	.
.	.	.	8e/J	.	16cc#\	.	.	.	8cc#X\	qui	.	.	.
.	.	.	.	.	16dd\JJ	.	.	.	.	.	.	.	.
=14	=14	=14	=14	=14	=14	=14	=14	=14	=14	=14	=14	=14	=14
4r	.	.	8d/L	.	16dd\LL	.	.	.	16dd\LL	tol-	4r	2ryy	2ryy
.	.	.	.	.	16ee\	.	.	.	16ee\	.	.	.	.
.	.	.	8c/J	.	16ee\	.	.	.	16ee\	-lis	.	.	.
.	.	.	.	.	16ff\JJ	.	.	.	16ff\JJ	.	.	.	.
8r	.	.	4B/	.	4ff\	.	.	.	4ff\	.	8r	.	.
8GG/	7	.	.	.	.	.	.	.	.	.	8dd\	.	.
=15	=15	=15	=15	=15	=15	=15	=15	=15	=15	=15	=15	=15	=15
8C\L	.	.	8c/L	.	(>16ff\LL	.	.	.	16ff\LL	tol-	4ee\	2ryy	2ryy
.	.	.	.	.	16ee\)	.	.	.	16ee\JJ	.	.	.	.
8C\J	.	.	8g/	.	16ee'>\	.	.	.	16ee\	-lis	.	.	.
.	.	.	.	.	16ee'>\JJ	.	.	.	16ee\	pec-	.	.	.
!	!	!	!	!	!	!	!	!	!LO:LB:g=original	!	!	!	!
8F\L	6 -	.	8a/	.	16ff\LL	.	.	.	16ff\LL	-ca-	4r	.	.
.	.	.	.	.	16ee\	.	.	.	16ee\JJ	.	.	.	.
8F#X\J	7 5	.	8a/J	.	16dd\	.	.	.	16dd\LL	-ta	.	.	.
.	.	.	.	.	16cc\JJ	.	.	.	16cc\JJ	.	.	.	.
=16	=16	=16	=16	=16	=16	=16	=16	=16	=16	=16	=16	=16	=16
8G\L	9 4	.	4e/	.	4cc\	.	.	.	4cc\	mun-	4ee\	2ryy	2ryy
8D\	.	.	.	.	.	.	.	.	.	.	.	.	.
8GG\J	9 3	.	8d/	.	8b\	.	.	.	8b\	-di	8dd\	.	.
8r	.	.	8r	.	8r	.	.	.	8r	.	8r	.	.
=17	=17	=17	=17	=17	=17	=17	=17	=17	=17	=17	=17	=17	=17
!	!	!	!	!	!	!	!	!	!	!	!LO:TX:a:t=4.	!	!
!	!	!	!	!	!	!	!	!	!	!	!LO:N:vis=00	!	!
8r	.	.	8r	.	8r	.	8.B\	Mi-	8.dd\	mi-	0r	2ryy	2ryy
8G\L	.	.	16b/LL	.	(>16dd\LL	.	.	.	.	.	.	.	.
.	.	.	16g/JJ	.	16b\JJ)	.	16G\	-ſe-	16b\	-ſe-	.	.	.
8G\	.	.	16b/LL	.	(>16dd\LL	.	16B\LL	-re-	16dd\LL	-re-	.	.	.
.	.	.	16g/	.	16b\)	.	16G\JJ	.	16b\JJ	.	.	.	.
8G\J	.	.	16b/	.	(>16dd\	.	16B\LL	-re	16dd\LL	-re	.	.	.
.	.	.	16g/JJ	.	16b\JJ)	.	16G\JJ	.	16b\JJ	.	.	.	.
=18	=18	=18	=18	=18	=18	=18	=18	=18	=18	=18	=18	=18	=18
8G\	6 4	.	16b/LL	.	(>16dd\LL	.	16c\LL	No-	16ee\LL	no-	.	2ryy	2ryy
.	.	.	16a/J	.	16cc\J)	.	16A\JJ	.	16cc\JJ	.	.	.	.
8r	.	.	8a/J	.	8cc\J	.	8A\	-bis	8cc\	-bis	.	.	.
4r	.	.	32a/LLL	.	(>32cc\LLL	.	4r	.	4r	.	.	.	.
.	.	.	32b/	.	32dd\	.	.	.	.	.	.	.	.
.	.	.	32a/	.	32cc\	.	.	.	.	.	.	.	.
.	.	.	32g/JJJ	.	32b\JJJ)	.	.	.	.	.	.	.	.
.	.	.	16f#X/LL	.	16a\LL	.	.	.	.	.	.	.	.
.	.	.	16g/JJ	.	16b\JJ	.	.	.	.	.	.	.	.
=19	=19	=19	=19	=19	=19	=19	=19	=19	=19	=19	=19	=19	=19
8r	.	.	8a/	.	8cc\	.	8.A\	mi-	8.cc\	mi-	.	2ryy	2ryy
8F#X\L	6	.	8r	.	8r	.	.	.	.	.	.	.	.
.	.	.	.	.	.	.	16F#X\	-ſe-	16a\	-ſe-	.	.	.
8F#\	.	.	16a/LL	.	16cc\LL	.	16A\LL	-re-	16cc\LL	-re-	.	.	.
!	!	!	!LO:SIC:s=16f#	!	!	!	!	!	!	!	!	!	!
.	.	.	16f/	.	16a\	.	16F#\	.	16a\JJ	.	.	.	.
8F#\J	.	.	16a/	.	16cc\	.	16A\	-re	16cc\LL	-re	.	.	.
!	!	!	!LO:SIC:s=16f#	!	!	!	!	!	!	!	!	!	!
.	.	.	16f/JJ	.	16a\JJ	.	16F#\JJ	.	16a\JJ	.	.	.	.
=20	=20	=20	=20	=20	=20	=20	=20	=20	=20	=20	=20	=20	=20
!LO:TX:a:t=P:problem=mixed beam	!	!	!	!	!	!	!	!	!	!	!	!	!
8G\L	.	.	16a/LL	.	16cc\LL	.	16B\LL	No-	16dd\LL	no-	.	2ryy	2ryy
.	.	.	16g/J	.	16b\J	.	16G\JJ	.	16b\JJ	.	.	.	.
8GG/	.	.	8g/J	.	8b\J	.	8G\	-bis	8b\	-bs	.	.	.
8GG/	.	.	4r	.	4r	.	8r	.	8r	.	.	.	.
8GG/J	.	.	.	.	.	.	16G\	A-	16g\	mi-	.	.	.
.	.	.	.	.	.	.	16G\	-gnus	16g\	-ſe-	.	.	.
!LO:LB:g=original	!	!	!	!	!	!	!	!	!	!	!	!	!
=21	=21	=21	=21	=21	=21	=21	=21	=21	=21	=21	=21	=21	=21
*tremolo	*	*	*	*	*	*	*	*	*	*	*	*	*
!	!	!	!	!	!LO:TX:a:t=P:problem=mixed beam	!	!	!	!	!	!	!	!
8GG/L	.	.	8B/	.	16g/LL	.	8G\	De-	8g\	-re-	2gg\	2ryy	2ryy
.	.	.	.	.	16gg\JJ	.	.	.	.	.	.	.	.
8GG/	.	.	4B/	.	4gg\	.	4B\	-i	4gg\	.	.	.	.
8GG/	.	.	.	.	.	.	.	.	.	.	.	.	.
8GG/J	.	.	8d/	.	8ff#X\	.	8d\	qui	8ff#X\	-re	.	.	.
!	!	!	!LO:LB:g=original	!	!LO:LB:g=original	!	!	!	!LO:LB:g=original	!	!	!	!
=22	=22	=22	=22	=22	=22	=22	=22	=22	=22	=22	=22	=22	=22
!	!	!	!	!	!LO:SIC:s=16ff#	!	!	!	!	!	!	!	!
8GG/L	.	.	16d/LL	.	16ff\LL	.	8c\	tol-	8ee\	mi-	2gg\	2ryy	2ryy
.	.	.	16c/JJ	.	16ee\JJ	.	.	.	.	.	.	.	.
8GG/	.	.	4c/	.	4ee\	.	4c\	-lis	4ee\	.	.	.	.
8GG/	.	.	.	.	.	.	.	.	.	.	.	.	.
8GG/J	.	.	8B/	.	8dd\	.	8B\	pec-	8dd\	-ſe-	.	.	.
!	!	!	!	!	!	!	!LO:LB:g=original	!	!	!	!	!	!
=23	=23	=23	=23	=23	=23	=23	=23	=23	=23	=23	=23	=23	=23
8GG/L	.	.	16B/LL	.	16dd\LL	.	16B\LL	-ca-	16dd\LL	-re-	2gg\	2ryy	2ryy
.	.	.	16c/JJ	.	16ee\JJ	.	16c\JJ	.	16ee\JJ	.	.	.	.
8GG/	.	.	4B/	.	4dd\	.	4B\	-ta	4dd\	.	.	.	.
8GG/	.	.	.	.	.	.	.	.	.	.	.	.	.
8GG/J	.	.	8A/	.	8cc\	.	8A\	.	8cc\	-re	.	.	.
=24	=24	=24	=24	=24	=24	=24	=24	=24	=24	=24	=24	=24	=24
8GG/L	.	.	8A/L	.	8cc\L	.	8A\	mun-	8cc\	no-	4gg\	2ryy	2ryy
8GG/	.	.	8G/J	.	8b\J	.	8G\	-di	8b\	-bis	.	.	.
8GG/	.	.	4r	.	16r	.	8r	.	8r	.	8g/L	.	.
.	.	.	.	.	16g/LL	.	.	.	.	.	.	.	.
8GG/J	.	.	.	.	16g/	.	16B\	A-	16g\	A-	8g/J	.	.
.	.	.	.	.	16g/JJ	.	16B\	-gnus	16g\	-gnus	.	.	.
=25	=25	=25	=25	=25	=25	=25	=25	=25	=25	=25	=25	=25	=25
!	!	!	!	!	!LO:TX:a:t=P:problem=mixed beam	!	!	!	!	!	!	!	!
8GG/L	.	.	8r	.	16g/LL	.	8B\	De-	8g\	De-	2g/	2ryy	2ryy
.	.	.	.	.	16gg\JJ	.	.	.	.	.	.	.	.
8GG/	.	.	4b\	.	4gg\	.	4B\	-i	4gg\	-i	.	.	.
8GG/	.	.	.	.	.	.	.	.	.	.	.	.	.
!	!	!	!	!	!	!	!LO:SIC:s=albo 8e	!	!	!	!	!	!
8GG/J	.	.	8dd\	.	8ff#X\	.	8d\	qui	8ff#X\	qui	.	.	.
!	!	!	!	!	!	!	!	!	!	!	!LO:LB:g=original	!	!
=26	=26	=26	=26	=26	=26	=26	=26	=26	=26	=26	=26	=26	=26
8GG/L	.	.	16dd\LL	.	16ff#X\LL	.	8c\	tol-	8ee\	tol-	2g/	2ryy	2ryy
.	.	.	16cc\JJ	.	16ee\JJ	.	.	.	.	.	.	.	.
8GG/	.	.	4cc\	.	4ee\	.	4c\	-lis	4ee\	-lis	.	.	.
8GG/	.	.	.	.	.	.	.	.	.	.	.	.	.
8GG/J	.	.	8b\	.	8dd\	.	8B\	pec-	8dd\	pec-	.	.	.
*Xtremolo	*	*	*	*	*	*	*	*	*	*	*	*	*
=27	=27	=27	=27	=27	=27	=27	=27	=27	=27	=27	=27	=27	=27
8r	.	.	16b\LL	.	16dd\LL	.	16B\LL	-ca-	16dd\LL	-ca-	8d/	2ryy	2ryy
.	.	.	16cc\JJ	.	16ee\JJ	.	16c\JJ	.	16ee\JJ	.	.	.	.
8D\L	.	.	4a/	.	4cc\	.	4A\	-ta	4cc\	-ta	4dd\	.	.
8F#X\	6	.	.	.	.	.	.	.	.	.	.	.	.
8G\J	5	.	8g/	.	8b\	.	8G\	.	8b\	.	8dd\	.	.
=28	=28	=28	=28	=28	=28	=28	=28	=28	=28	=28	=28	=28	=28
!LO:TX:a:t=P:problem=mixed beam	!	!	!	!	!	!	!	!	!	!	!	!	!
!	!	!	!LO:TX:a:t=P:problem=brak zmiany metrum w źródle	!	!LO:TX:a:t=P:problem=brak zmiany metrum w źródle	!	!LO:TX:a:t=P:problem=brak zmiany metrum w źródle	!	!LO:TX:a:t=P:problem=brak zmiany metrum w źródle	!	!LO:TX:a:t=P:problem=brak zmiany metrum w źródle	!	!
8d\L	4	.	8g/L	.	8b\L	.	8G\	mun-	8b\	mun-	8dd\L	2ryy	2ryy
8D/J	#	.	8f#X/J	.	8a\J	.	8F#X\	-di	8a\	-di	16dd\L	.	.
.	.	.	.	.	.	.	.	.	.	.	16dd\JJ	.	.
!LO:SIC:s=8D	!	!	!	!	!	!	!	!	!	!	!	!	!
!LO:N:vis=4	!	!	!	!	!	!	!	!	!	!	!	!	!
8D/	.	.	4r	.	4r	.	4r	.	4r	.	4dd\	.	.
!LO:SIC:s=8r	!	!	!	!	!	!	!	!	!	!	!	!	!
!LO:N:vis=4	!	!	!	!	!	!	!	!	!	!	!	!	!
8r	.	.	.	.	.	.	.	.	.	.	.	.	.
=29	=29	=29	=29	=29	=29	=29	=29	=29	=29	=29	=29	=29	=29
*2\right	*	*	*	*	*	*	*	*	*	*	*	*	*
*tremolo	*	*	*	*	*	*	*	*	*	*	*	*	*
!	!	!	!	!	!	!	!	!	!	!	!LO:TX:a:t=9.	!	!
!	!	!	!	!	!	!	!	!	!LO:N:vis=00	!	!LO:N:vis=00	!	!
8G\L	.	.	8r	.	16dd\LL	.	8D\	A-	0r	.	0r	2ryy	2ryy
.	.	.	.	.	16gg\JJ	.	.	.	.	.	.	.	.
!	!	!	!	!	!	!	!LO:TX:a:t=P:problem=niejednoznaczny zapis łuku	!	!	!	!	!	!
8G\	.	.	4d/ 4b	.	4gg\	.	(>4G\	-gnus	.	.	.	.	.
8G\	.	.	.	.	.	.	.	.	.	.	.	.	.
8G\J	.	.	8dd\	.	8ff#X\	.	8F#X\)	.	.	.	.	.	.
=30	=30	=30	=30	=30	=30	=30	=30	=30	=30	=30	=30	=30	=30
8G\L	.	.	16cc\LL	.	16ee\LL	.	16E\LL	De-	.	.	.	2ryy	2ryy
.	.	.	16ee\JJ	.	16ccc\JJ	.	16c\JJ	.	.	.	.	.	.
8G\	.	.	4ee\	.	4ccc\	.	4c\	-i	.	.	.	.	.
8G\	.	.	.	.	.	.	.	.	.	.	.	.	.
8G\J	.	.	8dd\	.	8bb\	.	8B\	qui	.	.	.	.	.
!	!	!	!	!	!	!	!LO:LB:g=original	!	!	!	!	!	!
=31	=31	=31	=31	=31	=31	=31	=31	=31	=31	=31	=31	=31	=31
8G\L	.	.	16ee\LL	.	16ccc\LL	.	16c\LL	tol-	.	.	.	2ryy	2ryy
.	.	.	16cc\JJ	.	16aa\JJ	.	16A\JJ	.	.	.	.	.	.
8G\	.	.	4cc\	.	4aa\	.	4A\	-lis	.	.	.	.	.
8G\	.	.	.	.	.	.	.	.	.	.	.	.	.
8G\J	.	.	8a\	.	8ff#X\	.	8F#X\	pec-	.	.	.	.	.
!	!	!	!	!	!LO:LB:g=original	!	!	!	!	!	!	!	!
*Xtremolo	*	*	*	*	*	*	*	*	*	*	*	*	*
=32	=32	=32	=32	=32	=32	=32	=32	=32	=32	=32	=32	=32	=32
!LO:TX:a:t=P:problem=mixed beam	!	!	!	!	!	!	!	!	!	!	!	!	!
8G\L	.	.	16cc\LL	.	16aa\LL	.	16A\LL	-ca-	.	.	.	2ryy	2ryy
.	.	.	16b\J	.	16gg\J	.	16G\JJ	.	.	.	.	.	.
8GG/J	.	.	8b\J	.	8gg\J	.	8G\	-ta	.	.	.	.	.
4r	.	.	4r	.	16r	.	4r	.	.	.	.	.	.
.	.	.	.	.	16dd\LL	.	.	.	.	.	.	.	.
.	.	.	.	.	16dd\	.	.	.	.	.	.	.	.
.	.	.	.	.	16dd\JJ	.	.	.	.	.	.	.	.
=33	=33	=33	=33	=33	=33	=33	=33	=33	=33	=33	=33	=33	=33
!	!	!	!	!	!	!	!	!	!LO:N:vis=00	!	!LO:N:vis=00	!	!
2r	.	.	8r	.	16dd\LL	.	4r	.	0r	.	0r	2ryy	2ryy
.	.	.	.	.	16ffn\	.	.	.	.	.	.	.	.
.	.	.	8dd\L	.	16ff\	.	.	.	.	.	.	.	.
!LO:TX:a:t=1	!	!	!	!	!	!	!	!	!	!	!	!	!
.	.	.	.	.	16ee\JJ	.	.	.	.	.	.	.	.
.	.	.	8cc\	.	16ee\LL	.	8r	.	.	.	.	.	.
.	.	.	.	.	16gg#X\	.	.	.	.	.	.	.	.
.	.	.	8b\J	.	16gg#\	.	8G#X\	qui	.	.	.	.	.
.	.	.	.	.	16aa\JJ	.	.	.	.	.	.	.	.
=34	=34	=34	=34	=34	=34	=34	=34	=34	=34	=34	=34	=34	=34
4r	.	.	8a/L	.	16aa\LL	.	16A\LL	tol-	.	.	.	2ryy	2ryy
.	.	.	.	.	16bb\	.	16B\	.	.	.	.	.	.
.	.	.	8g/J	.	16bb\	.	16B\	-lis	.	.	.	.	.
.	.	.	.	.	16ccc\JJ	.	16c\JJ	.	.	.	.	.	.
8r	.	.	4f#X/	.	4ccc\	.	8c\	.	.	.	.	.	.
8D\	.	.	.	.	.	.	8c\	pec-	.	.	.	.	.
!LO:LB:g=original	!	!	!LO:LB:g=original	!	!	!	!	!	!	!	!	!	!
=35	=35	=35	=35	=35	=35	=35	=35	=35	=35	=35	=35	=35	=35
!LO:TX:a:t=P:problem=mixed beam	!	!	!	!	!	!	!	!	!	!	!	!	!
8G\L	.	.	8g\L	.	16ccc\LL	.	8B\	-ca-	.	.	.	2ryy	2ryy
.	.	.	.	.	16bb\	.	.	.	.	.	.	.	.
8GG/	.	.	8dd\	.	16bb\	.	16B\	-ta	.	.	.	.	.
.	.	.	.	.	16bb\JJ	.	16B\	pec-	.	.	.	.	.
8C/	6 -	.	8ee\	.	16ccc\LL	.	16c\LL	-ca-	.	.	.	.	.
.	.	.	.	.	16bb\	.	16B\JJ	.	.	.	.	.	.
8C#X/J	7 5	.	8ee\J	.	16aa\	.	16A\LL	-ta	.	.	.	.	.
.	.	.	.	.	16gg\JJ	.	16G\JJ	.	.	.	.	.	.
=36	=36	=36	=36	=36	=36	=36	=36	=36	=36	=36	=36	=36	=36
8D/L	#	.	4d/ 4b	.	4gg\	.	4G\	mun-	.	.	.	2ryy	2ryy
8AA/	#	.	.	.	.	.	.	.	.	.	.	.	.
8D/J	#	.	8d/ 8a	.	8ff#X\	.	8F#X\	-di	.	.	.	.	.
8r	.	.	8r	.	8r	.	8r	.	.	.	.	.	.
!	!	!	!	!	!	!	!	!	!LO:LB:g=original	!	!	!	!
=37	=37	=37	=37	=37	=37	=37	=37	=37	=37	=37	=37	=37	=37
2r	.	.	8.bb\L	.	8.ddd\L	.	8.B\	mi-	8.dd\	mi-	2r	2ryy	2ryy
.	.	.	16gg#X\Jk	.	16bb\Jk	.	16G\	-ſe-	16b\	-ſe-	.	.	.
!LO:TX:a:t=1.	!	!	!	!	!	!	!	!	!	!	!	!	!
.	.	.	16bb\LL	.	16ddd\LL	.	16B\LL	-re-	16dd\LL	-re-	.	.	.
.	.	.	16gg#\	.	16bb\	.	16G\JJ	.	16b\JJ	.	.	.	.
.	.	.	16bb\	.	16ddd\	.	16B\LL	-re	16dd\LL	-re	.	.	.
.	.	.	16gg#\JJ	.	16bb\JJ	.	16G\JJ	.	16b\JJ	.	.	.	.
!	!	!	!	!	!	!	!LO:PB:g=original	!	!	!	!	!	!
=38	=38	=38	=38	=38	=38	=38	=38	=38	=38	=38	=38	=38	=38
8e\L	#	.	8bb\L	.	8ddd\L	.	8B\	No-	16ee\LL	no-	8ee\L	2ryy	2ryy
.	.	.	.	.	.	.	.	.	16cc\JJ	.	.	.	.
8A\J	.	.	8aa\J	.	8ccc\J	.	8A\	-bis	8cc\	-bis	8ee\J	.	.
4AA/	.	.	4A/	.	4c/	.	4r	.	4r	.	4r	.	.
=39	=39	=39	=39	=39	=39	=39	=39	=39	=39	=39	=39	=39	=39
2r	.	.	8.aa\L	.	8.ccc\L	.	8.A\	Mi-	8.cc\	mi-	2r	2ryy	2ryy
.	.	.	16ff#X\Jk	.	16aa\Jk	.	16F#X\	-ſe-	16a\	-ſe-	.	.	.
!LO:TX:a:t=1.	!	!	!	!	!	!	!	!	!	!	!LO:TX:a:t=1	!	!
.	.	.	16aa\LL	.	16ccc\LL	.	16A\LL	-re-	16cc\LL	-re-	.	.	.
.	.	.	16ff#\	.	16aa\	.	16F#\JJ	.	16a\JJ	.	.	.	.
.	.	.	16aa\	.	16ccc\	.	16A\LL	-re	16cc\LL	-re	.	.	.
.	.	.	16ff#\JJ	.	16aa\JJ	.	16F#\JJ	.	16a\JJ	.	.	.	.
!	!	!	!	!	!LO:LB:g=original	!	!	!	!	!	!	!	!
=40	=40	=40	=40	=40	=40	=40	=40	=40	=40	=40	=40	=40	=40
8d\L	.	.	8aa\L	.	8ccc\L	.	8A\	no-	8cc\	no-	8dd\L	2ryy	2ryy
8G\	.	.	8ggn\J	.	8bb\	.	8G\	-bis	8b\	-bis	8dd\	.	.
8G\	.	.	8dd\L	.	8bb\	.	8G\	A-	8b\	A-	8dd\	.	.
8G\J	.	.	8dd\J	.	8bb\J	.	8G\	-gnus	8b\	-gnus	8dd\J	.	.
=41	=41	=41	=41	=41	=41	=41	=41	=41	=41	=41	=41	=41	=41
*tremolo	*	*	*2\right	*2\right	*2\right	*	*	*	*	*	*	*	*
!LO:TX:i:a:t=Tutt:rj	!	!	!	!	!	!	!	!	!	!	!	!	!
*	*	*	*tremolo	*	*tremolo	*	*	*	*	*	*	*	*
8Fn\L	4 2	.	16dd\L	.	16bb\L	.	4Fn\	De-	4b\	De-	2dd\	2ryy	2ryy
.	.	.	16dd\	.	16bb\	.	.	.	.	.	.	.	.
8Fn\	.	.	16dd\	.	16bb\	.	.	.	.	.	.	.	.
.	.	.	16dd\	.	16bb\	.	.	.	.	.	.	.	.
8Fn\	.	.	16dd\	.	16bb\	.	8F\	-i	8b\	-i	.	.	.
.	.	.	16dd\	.	16bb\	.	.	.	.	.	.	.	.
8Fn\J	.	.	16dd\	.	16bb\	.	8F\	qui	8b\	qui	.	.	.
.	.	.	16dd\J	.	16bb\J	.	.	.	.	.	.	.	.
=42	=42	=42	=42	=42	=42	=42	=42	=42	=42	=42	=42	=42	=42
8E\L	.	.	16ee\L	.	16ccc\L	.	4E\	tol-	4cc\	tol-	2ee\	2ryy	2ryy
.	.	.	16ee\	.	16ccc\	.	.	.	.	.	.	.	.
8E\	.	.	16ee\	.	16ccc\	.	.	.	.	.	.	.	.
.	.	.	16ee\	.	16ccc\	.	.	.	.	.	.	.	.
8E\	.	.	16ee\	.	16ccc\	.	8E\	-lis	8cc\	-lis	.	.	.
.	.	.	16ee\	.	16ccc\	.	.	.	.	.	.	.	.
8E\J	.	.	16ee\	.	16ccc\	.	8C/	pec-	8cc\	pec-	.	.	.
.	.	.	16ee\J	.	16ccc\J	.	.	.	.	.	.	.	.
*Xtremolo	*	*	*Xtremolo	*	*Xtremolo	*	*	*	*	*	*	*	*
=43	=43	=43	=43	=43	=43	=43	=43	=43	=43	=43	=43	=43	=43
8BB/L	6 5	.	8ffn\	.	8ddd\	.	4BB/	-ca-	4dd\	-ca-	8ff\	2ryy	2ryy
8BB/	.	.	4dd\	.	4ff\	.	.	.	.	.	4ff\	.	.
8C/	.	.	.	.	.	.	4C/	-ta	4cc\	-ta	.	.	.
8C/J	.	.	8cc\	.	8ee\	.	.	.	.	.	8ee\	.	.
!	!	!	!	!	!	!	!LO:LB:g=original	!	!LO:LB:g=original	!	!	!	!
=44	=44	=44	=44	=44	=44	=44	=44	=44	=44	=44	=44	=44	=44
8G\L	#	.	8cc\L	.	8ee\L	.	8G\	mun-	8cc\	Mun-	8ee\L	2ryy	2ryy
8G\	3	.	8b\J	.	8dd\J	.	8G\	-di	8b\	-di	8dd\J	.	.
8E\	6	.	8r	.	16r	.	4E\	qui	4cc\	qui	8r	.	.
.	.	.	.	.	16cc\LL	.	.	.	.	.	.	.	.
8E\J	.	.	8g/	.	16dd\	.	.	.	.	.	8dd\	.	.
.	.	.	.	.	16ee\JJ	.	.	.	.	.	.	.	.
!	!	!	!	!	!	!	!	!	!	!	!LO:LB:g=original	!	!
=45	=45	=45	=45	=45	=45	=45	=45	=45	=45	=45	=45	=45	=45
*	*	*	*tremolo	*	*	*	*	*	*	*	*	*	*
8F\L	6 -	.	16a/L	.	8dd\	.	8F\	tol-	8cc\	tol-	8ff\	2ryy	2ryy
.	.	.	16a/	.	.	.	.	.	.	.	.	.	.
8F\	.	.	16a/	.	4dd\	.	16F\	-lis	16cc\	-lis	4ff\	.	.
.	.	.	16a/	.	.	.	16F\	pec-	16cc\	pec-	.	.	.
8F#X\	7 5	.	16a/	.	.	.	8F#X\	-ca-	8cc\	-ca-	.	.	.
.	.	.	16a/	.	.	.	.	.	.	.	.	.	.
8F#\J	.	.	16a/	.	8cc\	.	8F#\	-ta	8cc\	-ta	8ee\	.	.
.	.	.	16a/J	.	.	.	.	.	.	.	.	.	.
*	*	*	*Xtremolo	*	*	*	*	*	*	*	*	*	*
!LO:LB:g=original	!	!	!	!	!	!	!	!	!	!	!	!	!
=46	=46	=46	=46	=46	=46	=46	=46	=46	=46	=46	=46	=46	=46
*	*	*	*	*	*	*	*2\right	*	*2\right	*	*	*	*
!	!	!LO:HP:b:i:t=p.	!	!	!	!	!	!	!	!	!	!	!
!.	!	!LO:DY:b:rj	!LO:TX:a:t=P:problem=mixed beam	!	!	!	!	!	!	!	!	!	!
2GG/ 2G	.	p	8d/L	.	8b\L	.	2G\	mun-	2gg\	mun-	2gg\	2ryy	2ryy
.	.	.	16ee\L	.	16gg\L	.	.	.	.	.	.	.	.
!	!	!	!	!	!	!LO:DY:b	!	!	!	!	!	!	!
.	.	.	16dd\JJ	.	16ff#X\JJ	p	.	.	.	.	.	.	.
.	.	.	16dd\LL	.	16ff#\LL	.	.	.	.	.	.	.	.
.	.	.	16cc\	.	16ee\	.	.	.	.	.	.	.	.
.	.	.	16cc\	.	16ee\	.	.	.	.	.	.	.	.
.	.	.	16b\JJ	.	16dd\JJ	.	.	.	.	.	.	.	.
=47	=47	=47	=47	=47	=47	=47	=47	=47	=47	=47	=47	=47	=47
2GG/ 2G	.	.	16b\LL	.	16dd\LL	.	2G\	.	2gg\	.	2gg\	2ryy	2ryy
.	.	.	16cc\	.	16ee\	.	.	.	.	.	.	.	.
.	.	.	16cc\	.	16ee\	.	.	.	.	.	.	.	.
.	.	.	16b\JJ	.	16dd\JJ	.	.	.	.	.	.	.	.
.	.	.	16b/LL	.	16dd\LL	.	.	.	.	.	.	.	.
.	.	.	16a/	.	16cc\	.	.	.	.	.	.	.	.
.	.	.	16a/	.	16cc\	.	.	.	.	.	.	.	.
.	.	.	16g/JJ	.	16b\JJ	.	.	.	.	.	.	.	.
!	!	!	!LO:LB:g=original	!	!	!	!	!	!	!	!	!	!
=48	=48	=48	=48	=48	=48	=48	=48	=48	=48	=48	=48	=48	=48
2GG/ 2G	.	.	8g/L	.	16b\LL	.	2G\	.	2gg\	.	2gg\	2ryy	2ryy
.	.	.	.	.	16ee\	.	.	.	.	.	.	.	.
.	.	.	16g/L	.	16ee\	.	.	.	.	.	.	.	.
.	.	.	16f#X/JJ	.	16dd\JJ	.	.	.	.	.	.	.	.
.	.	.	16f#/LL	.	16dd\LL	.	.	.	.	.	.	.	.
.	.	.	16e/	.	16cc\	.	.	.	.	.	.	.	.
.	.	.	16e/	.	16cc\	.	.	.	.	.	.	.	.
.	.	.	16d/JJ	.	16b\JJ	.	.	.	.	.	.	.	.
!	!	!	!	!	!LO:LB:g=original	!	!	!	!	!	!	!	!
=49	=49	=49	=49	=49	=49	=49	=49	=49	=49	=49	=49	=49	=49
2GG/ 2G	.	.	16d/LL	.	16b\LL	.	2G\	.	2gg\	-di	2gg\	2ryy	2ryy
.	.	.	16e/	.	16cc\	.	.	.	.	.	.	.	.
.	.	.	16e/	.	16cc\	.	.	.	.	.	.	.	.
.	.	.	16d/JJ	.	16b\JJ	.	.	.	.	.	.	.	.
.	.	.	16d/LL	.	16b/LL	.	.	.	.	.	.	.	.
.	.	.	16c/	.	16a/	.	.	.	.	.	.	.	.
.	.	.	16c/	.	16a/	.	.	.	.	.	.	.	.
!	!	!	!	!	!	!	!	!	!LO:TX:a:t=P:problem=partia kończy się w t. 49	!	!	!	!
.	.	.	16B/JJ	.	16g/JJ	.	.	.	.	.	.	.	.
=50	=50	=50	=50	=50	=50	=50	=50	=50	=50	=50	=50	=50	=50
2GG/ 2G	.	.	2B;>/	.	2g;>/	.	4GG/	-di	2ryy	.	2gg\	2ryy	2ryy
.	.	.	.	.	.	.	4r	.	.	.	.	.	.
==	==	==	==	==	==	==	==	==	==	==	==	==	==
*-	*-	*-	*-	*-	*-	*-	*-	*-	*-	*-	*-	*-	*-
!!!system-decoration: [(s1,s2)][(s3)][(s4,s5)][(s6,s7)]s8
!!!EED: Mateusz Mrugas
!!!EEV: 2020-10-08
!!!RDF**kern: > = above
!!!RDF**kern: < = below
!!!ENC: Andrzej Kubiczek
!!!END: 2020-06-03
!!!YEC: Copyright 2022 Narodowy Instytut Fryderyka Chopina (https://polishscores.org)
!!!YEM: License CC-BY-4.0 (https://creativecommons.org/licenses/by/4.0)
